**kern	**kern	**dynam
*part1	*part1	*part1
*staff2	*staff1	*
*I"Piano	*	*
*clefF4	*clefG2	*
*k[f#c#g#]	*k[f#c#g#]	*
=1	=1	=1
4C#	4c# 4e 4g#	.
4FF#	4c# 4f# 4a	.
=	=	=
4BB	4B 4d#X 4f#	.
4GG#	4B 4d# 4g#	.
=	=	=
4FF#	4c# 4f# 4a	.
4F#	4A 4c# 4f#	.
=	=	=
*	*^	*
2BB	4B 4g#	2d#X	.
.	4A 4f#	.	.
*	*v	*v	*
=	=	=
4E)	4G#) 4e	.
[4EE [4BB	(4b [4gg# [4bb	>
=	=	=
2EE_ 2BB_	4cc# 4gg#] 4bb]	.
.	4dd#X 4ff# 4aa	.
=	=	=
4EE] 4BB]	4ee) 4gg#	]
(4E	(4e	p
=	=	=
*-	*-	*-
!!!system-decoration: {(s1,s2)}
